X:247
T:What did your sailor leave you (Hard)
%%VWML:SBG-1-2-677-0
F:http://www.vwml.org/record/SBG/1/2/677
Z:Original Sibelius transcriptions by M. & S. Graebe
M:6/8
I:linebreak $
K:A
V:1 treble nm="P1"
V:1
 ABc A2 F | (EFG) (A2 B) | (AF) E D2 F | (E3 E2) | D | (DE)D B,2 C |$ D3 F3 | (GF)E A2 E | %8
w: |||E E|||||
 (C3 C2) | E | F3 B A[FA] | [EG]3 !fermata![DA]3 | %12
w: * ?||||

